svgs/thin/staff.svg

<svg xmlns="http://www.w3.org/2000/svg" viewBox="0 0 512 512"><!--! Font Awesome Pro 6.0.0-alpha3 by @fontawesome - https://fontawesome.com License - https://fontawesome.com/license (Commercial License) --><path d="M432 0h-76.25c-30.25 0-57.98 17.1-71.48 44.23l-16.01 32.02c-4 7.873-.75 17.5 7.123 21.37l57.25 28.62c2.293 1.164 4.734 1.715 7.143 1.715c5.859 0 11.52-3.258 14.36-8.84l11.5-23.12h50.37v75.75l-157.3 45.01C229.1 225 203.8 240.4 182.6 261.5L156.1 287.1H112c-8.873 0-15.1 7.125-15.1 16v44.12l-88.99 88.99c-9.375 9.375-9.375 24.5 0 33.87l33.1 33.1C45.72 509.7 51.84 512 57.96 512s12.25-2.344 16.94-7.031l175.6-175.6c9.625-9.625 21.5-16.63 34.62-20.38l84.75-24.25l32.25 18.63c2.533 1.494 5.317 2.202 8.063 2.202c5.52 0 10.88-2.886 13.8-7.975l19.51-33.85l10.51-3C488.3 250.1 512 219.6 512 183.9V79.1C512 35.88 476.1 0 432 0zM496 183.9c0 28.55-18.93 53.64-46.38 61.48l-16.75 4.785L410.1 289.5l-38.13-22.02l-91.29 26.12C265 298.1 250.7 306.5 239.2 318l-175.6 175.6c-3.105 3.105-8.141 3.105-11.25 0l-34-34c-3.104-3.104-3.104-8.139 0-11.24l93.68-93.68l-.002-50.75H162.8l31.18-31.18c19.1-19.1 43.04-33.17 69.21-40.68l157.2-44.1c6.865-1.965 11.6-8.24 11.6-15.38V95.99c0-8.836-7.164-16-16-16h-50.38c-6.064 0-11.61 3.43-14.32 8.859l-11.51 23.08l-57.22-28.53l16.04-32.09C309.4 29.67 331.6 16 355.8 16h76.24C467.3 16 496 44.65 496 79.1V183.9z"/></svg>

<svg xmlns="http://www.w3.org/2000/svg" viewBox="0 0 512 512"><!-- Font Awesome Pro 6.0.0-alpha2 by @fontawesome - https://fontawesome.com License - https://fontawesome.com/license (Commercial License) --><path d="M432.004 0H355.76C325.512 0 297.764 17.123 284.264 44.248L268.266 76.246C264.266 84.119 267.516 93.744 275.389 97.619L332.637 126.242C334.93 127.406 337.371 127.957 339.779 127.957C345.639 127.957 351.301 124.699 354.135 119.117L365.635 95.994H416.006V171.74L258.766 216.736C230.018 224.986 203.77 240.359 182.645 261.484L156.146 287.982H112.023C103.15 287.982 96.025 295.107 96.025 303.982V348.104L7.031 437.098C-2.344 446.473 -2.344 461.598 7.031 470.971L41.029 504.969C45.717 509.656 51.84 512 57.965 512S70.215 509.656 74.902 504.969L250.516 329.355C260.141 319.73 272.014 312.73 285.139 308.98L369.883 284.732L402.131 303.357C404.664 304.852 407.445 305.561 410.191 305.561C415.711 305.561 421.084 302.697 424.006 297.607L443.504 263.734L454.004 260.734C488.252 250.984 512 219.611 512 183.863V79.996C512 35.873 476.127 0 432.004 0ZM496 183.863C496 212.412 477.074 237.504 449.621 245.346L432.873 250.131L410.133 289.502L372.008 267.482L280.717 293.604C265.029 298.092 250.742 306.502 239.203 318.041L63.59 493.654C60.484 496.76 55.449 496.76 52.344 493.654L18.344 459.654C15.24 456.551 15.24 451.516 18.344 448.412L112.025 354.73L112.023 303.982H162.775L193.959 272.799C213.059 253.697 236.996 239.629 263.168 232.119L420.408 187.123C427.273 185.158 432.006 178.883 432.006 171.74V95.994C432.006 87.158 424.842 79.994 416.006 79.994H365.621C359.557 79.994 354.012 83.424 351.305 88.854L339.793 111.932L282.576 83.4L298.619 51.314C309.441 29.672 331.563 16 355.76 16H432.004C467.348 16 496 44.652 496 79.996V183.863Z"/></svg>
